Flat-Remix-Dark/apps/scalable/diffuse.svg

<svg xmlns="http://www.w3.org/2000/svg" xmlns:xlink="http://www.w3.org/1999/xlink" width="384pt" height="384pt" version="1.1" viewBox="0 0 384 384"> <defs> <filter id="alpha" width="100%" height="100%" x="0%" y="0%" filterUnits="objectBoundingBox"> <feColorMatrix in="SourceGraphic" type="matrix" values="0 0 0 0 1 0 0 0 0 1 0 0 0 0 1 0 0 0 1 0"/> </filter> <mask id="mask1"> <g filter="url(#alpha)"> <rect style="fill:rgb(0%,0%,0%);fill-opacity:0.2" width="384" height="384" x="0" y="0"/> </g> </mask> <clipPath id="clip2"> <rect width="384" height="384" x="0" y="0"/> </clipPath> <g id="surface8" clip-path="url(#clip2)"> <path d="M 192 32 C 187.910156 32 183.824219 33.570312 180.6875 36.703125 L 36.703125 180.6875 C 32.535156 184.855469 31.199219 190.695312 32.578125 196 C 33.269531 193.328125 34.605469 190.78125 36.703125 188.6875 L 180.6875 44.703125 C 186.953125 38.433594 197.046875 38.433594 203.3125 44.703125 L 347.296875 188.6875 C 349.390625 190.78125 350.726562 193.328125 351.421875 196 C 352.800781 190.695312 351.464844 184.855469 347.296875 180.6875 L 203.3125 36.703125 C 200.175781 33.566406 196.085938 32 192 32 Z M 192 32" style="fill:rgb(100.000%,100.000%,100.000%)"/> </g> </defs> <g> <path d="M 203.308594 36.65625 L 347.292969 180.640625 C 353.539062 186.890625 353.539062 197.019531 347.292969 203.269531 L 203.308594 347.25 C 197.058594 353.5 186.929688 353.5 180.679688 347.25 L 36.695312 203.269531 C 30.449219 197.019531 30.449219 186.890625 36.695312 180.640625 L 180.679688 36.65625 C 186.929688 30.40625 197.058594 30.40625 203.308594 36.65625 Z M 203.308594 36.65625" style="fill:rgb(100.000%,78.039%,18.823%)"/> <path d="M 192 104 L 192 159.886719 L 160 191.886719 L 160.113281 192 L 160 192 L 160 272 L 176 272 L 176 198.511719 L 192 182.511719 L 192 272 L 208 272 L 208 104 Z M 192 104" style="fill:rgb(6.666%,17.647%,36.078%)"/> <use mask="url(#mask1)" xlink:href="#surface8"/> </g> <path d="M 43.296875 250.93945 C 41.620307 257.91959 43.481752 265.576 48.927734 271.02539 L 240.90625 463 C 249.23958 471.33333 262.74479 471.33333 271.07812 463 L 463.05664 271.02539 C 468.50262 265.576 470.36407 257.91959 468.6875 250.93945 C 467.80022 254.6335 465.93878 258.14145 463.05664 261.02539 L 271.07812 453 C 262.74479 461.33335 249.23958 461.33335 240.90625 453 L 48.927734 261.02539 C 46.045596 258.14145 44.184153 254.6335 43.296875 250.93945 z" transform="scale(0.75)" style="opacity:0.3"/> </svg>

<svg width="512" height="512" version="1.1" viewBox="0 0 384 384" xmlns="http://www.w3.org/2000/svg"><defs><clipPath><rect width="384" height="384"/></clipPath></defs><path d="m203.31 36.656 143.98 143.98c6.2461 6.25 6.2461 16.379 0 22.629l-143.98 143.98c-6.25 6.25-16.379 6.25-22.629 0l-143.98-143.98c-6.2461-6.25-6.2461-16.379 0-22.629l143.98-143.98c6.25-6.25 16.379-6.25 22.629 0z" fill="#ffc72e"/><path d="m192 111.5v55.887l-32 32 0.11328 0.11328h-0.11328v80h16v-73.488l16-16v89.488h16v-168z" opacity=".3"/><path d="m192 104v55.887l-32 32 0.11328 0.11328h-0.11328v80h16v-73.488l16-16v89.488h16v-168z" fill="#0f2b5c"/><path transform="scale(.75)" d="m43.297 250.94c-1.6766 6.9801 0.18488 14.637 5.6309 20.086l191.98 191.97c8.3333 8.3333 21.839 8.3333 30.172 0l191.98-191.97c5.446-5.4494 7.3074-13.106 5.6309-20.086-0.88728 3.694-2.7487 7.202-5.6309 10.086l-191.98 191.97c-8.3333 8.3334-21.839 8.3334-30.172 0l-191.98-191.97c-2.8821-2.8839-4.7436-6.3919-5.6309-10.086z" opacity=".3"/><path transform="scale(.75)" d="m255.99 42.625c-5.4596 0-10.919 2.0833-15.086 6.25l-191.98 191.98c-5.446 5.4494-7.3074 13.106-5.6309 20.086 0.88728-3.694 2.7487-7.202 5.6309-10.086l191.98-191.98c8.3333-8.3333 21.839-8.3333 30.172 0l191.98 191.98c2.8821 2.8839 4.7436 6.3919 5.6309 10.086 1.6766-6.9801-0.18488-14.637-5.6309-20.086l-191.98-191.98c-4.1667-4.1667-9.6263-6.25-15.086-6.25z" fill="#fff" opacity=".3" stroke-width="1.3333"/></svg>
